X:1
%
T:Mungo's Delight
M:6/8
L:1/8
R:Jig & Country Dance
C:Ignatius Sancho
B:Sancho – Twelve Country Dances for the Year 1779. Set for the Harpsichord (1779, p. 12)
N:”Humbly Dedicated to the Right Honourable Miss North by her
N:most obedient Servant Ignatius Sancho.”
Z:AK/Fiddler’s Companion
K:Bb
B/A/|GBd C2c|D2g f2e|dcB BcA|BGG G2 (d/c/)|
Bdf [G,2E2]g|C2b (a2g)|fbd ecA|B6:|
|:d/e/|fgf fdb|gag geb|fgf fdB|cFF F2E|
(DF)B (df)b|(EG)B e2g|fbd ecA|B6:|]

